white_pine_national_park/img/cards/discover.svg

<svg height="50" viewBox="0 0 48 48" width="50" xmlns="http://www.w3.org/2000/svg"><path d="m45 35c0 2.199219-1.800781 4-4 4h-34c-2.199219 0-4-1.800781-4-4v-22c0-2.199219 1.800781-4 4-4h34c2.199219 0 4 1.800781 4 4z" fill="#e1e7ea"/><path d="m45 35c0 2.199219-1.800781 4-4 4h-25s23.601563-3.800781 29-15zm-23-11c0 1.699219 1.300781 3 3 3s3-1.300781 3-3-1.300781-3-3-3-3 1.300781-3 3z" fill="#ff6d00"/><path d="m11.199219 21h1.101562v6h-1.101562zm6 3c0 1.699219 1.300781 3 3 3 .5 0 .902344-.101562 1.402344-.300781v-1.300781c-.402344.402343-.800782.601562-1.402344.601562-1.097656 0-1.898438-.800781-1.898438-2 0-1.101562.800782-2 1.898438-2 .5 0 .902344.199219 1.402344.601563v-1.300782c-.5-.199218-.902344-.402343-1.402344-.402343-1.699219.101562-3 1.5-3 3.101562zm13.402344.898438-1.601563-3.898438h-1.199219l2.5 6h.597657l2.5-6h-1.199219zm3.296875 2.101562h3.203125v-1h-2.101563v-1.601562h2v-1h-2v-1.398438h2.101563v-1h-3.203125zm7.601562-4.199219c0-1.101562-.699219-1.800781-2-1.800781h-1.699219v6h1.097657v-2.398437h.101562l1.601563 2.398437h1.398437l-1.800781-2.5c.800781-.199219 1.300781-.800781 1.300781-1.699219zm-2.300781 1h-.300781v-1.800781h.300781c.699219 0 1.101562.300781 1.101562.898438 0 .5-.300781.902343-1.101562.902343zm-31.5-2.800781h-1.699219v6h1.601563c2.5 0 3.097656-2.101562 3.097656-3 .101562-1.800781-1.199219-3-3-3zm-.300781 5h-.296875v-4h.398437c1.5 0 2.101563 1 2.101563 2 0 .398438-.101563 2-2.203125 2zm7.902343-2.699219c-.699218-.300781-.902343-.402343-.902343-.699218 0-.402344.402343-.601563.800781-.601563.300781 0 .601562.101563.902344.5l.597656-.800781c-.5-.5-1-.699219-1.699219-.699219-1 0-1.800781.699219-1.800781 1.699219 0 .800781.402344 1.199219 1.402344 1.601562.597656.199219 1.097656.398438 1.097656.898438s-.398438.800781-.898438.800781-1-.300781-1.199218-.800781l-.703125.699219c.5.800781 1.101562 1.101562 2 1.101562 1.203125 0 2-.800781 2-1.898437 0-.902344-.398438-1.300782-1.597657-1.800782z"/></svg>

<svg xmlns="http://www.w3.org/2000/svg" x="0px" y="0px"
     width="50" height="50"
     viewBox="0 0 48 48"
     style="fill:#000000;"><g id="surface1"><path style=" fill:#E1E7EA;" d="M 45 35 C 45 37.199219 43.199219 39 41 39 L 7 39 C 4.800781 39 3 37.199219 3 35 L 3 13 C 3 10.800781 4.800781 9 7 9 L 41 9 C 43.199219 9 45 10.800781 45 13 Z "></path><path style=" fill:#FF6D00;" d="M 45 35 C 45 37.199219 43.199219 39 41 39 L 16 39 C 16 39 39.601563 35.199219 45 24 Z M 22 24 C 22 25.699219 23.300781 27 25 27 C 26.699219 27 28 25.699219 28 24 C 28 22.300781 26.699219 21 25 21 C 23.300781 21 22 22.300781 22 24 Z "></path><path style=" " d="M 11.199219 21 L 12.300781 21 L 12.300781 27 L 11.199219 27 Z M 17.199219 24 C 17.199219 25.699219 18.5 27 20.199219 27 C 20.699219 27 21.101563 26.898438 21.601563 26.699219 L 21.601563 25.398438 C 21.199219 25.800781 20.800781 26 20.199219 26 C 19.101563 26 18.300781 25.199219 18.300781 24 C 18.300781 22.898438 19.101563 22 20.199219 22 C 20.699219 22 21.101563 22.199219 21.601563 22.601563 L 21.601563 21.300781 C 21.101563 21.101563 20.699219 20.898438 20.199219 20.898438 C 18.5 21 17.199219 22.398438 17.199219 24 Z M 30.601563 24.898438 L 29 21 L 27.800781 21 L 30.300781 27 L 30.898438 27 L 33.398438 21 L 32.199219 21 Z M 33.898438 27 L 37.101563 27 L 37.101563 26 L 35 26 L 35 24.398438 L 37 24.398438 L 37 23.398438 L 35 23.398438 L 35 22 L 37.101563 22 L 37.101563 21 L 33.898438 21 Z M 41.5 22.800781 C 41.5 21.699219 40.800781 21 39.5 21 L 37.800781 21 L 37.800781 27 L 38.898438 27 L 38.898438 24.601563 L 39 24.601563 L 40.601563 27 L 42 27 L 40.199219 24.5 C 41 24.300781 41.5 23.699219 41.5 22.800781 Z M 39.199219 23.800781 L 38.898438 23.800781 L 38.898438 22 L 39.199219 22 C 39.898438 22 40.300781 22.300781 40.300781 22.898438 C 40.300781 23.398438 40 23.800781 39.199219 23.800781 Z M 7.699219 21 L 6 21 L 6 27 L 7.601563 27 C 10.101563 27 10.699219 24.898438 10.699219 24 C 10.800781 22.199219 9.5 21 7.699219 21 Z M 7.398438 26 L 7.101563 26 L 7.101563 22 L 7.5 22 C 9 22 9.601563 23 9.601563 24 C 9.601563 24.398438 9.5 26 7.398438 26 Z M 15.300781 23.300781 C 14.601563 23 14.398438 22.898438 14.398438 22.601563 C 14.398438 22.199219 14.800781 22 15.199219 22 C 15.5 22 15.800781 22.101563 16.101563 22.5 L 16.699219 21.699219 C 16.199219 21.199219 15.699219 21 15 21 C 14 21 13.199219 21.699219 13.199219 22.699219 C 13.199219 23.5 13.601563 23.898438 14.601563 24.300781 C 15.199219 24.5 15.699219 24.699219 15.699219 25.199219 C 15.699219 25.699219 15.300781 26 14.800781 26 C 14.300781 26 13.800781 25.699219 13.601563 25.199219 L 12.898438 25.898438 C 13.398438 26.699219 14 27 14.898438 27 C 16.101563 27 16.898438 26.199219 16.898438 25.101563 C 16.898438 24.199219 16.5 23.800781 15.300781 23.300781 Z "></path></g></svg>
